src/status/16/si-syncthing-8.svg

<svg viewBox="0 0 16 16" xmlns="http://www.w3.org/2000/svg">
 <path style="fill:#2e3440;opacity:1;fill-opacity:1;stroke:none;fill-rule:nonzero" d="m 1.937672 11.499913 a 7 7 0 0 0 9.562178 2.562178 7 7 0 0 0 0.07078 -0.04538 1.5 1.5 0 0 0 2.039467 -0.07691 1.5 1.5 0 0 0 0.137835 -1.960475 A 7 7 0 0 0 14.06203 4.499914 7 7 0 0 0 11.141479 1.749969 1.5 1.5 0 0 0 10.03515 0.404064 1.5 1.5 0 0 0 8.405784 1.015512 7 7 0 0 0 4.499849 1.937736 7 7 0 0 0 2.614953 3.540182 1.5 1.5 0 0 0 1.157553 3.926049 1.5 1.5 0 0 0 0.967313 5.815296 1.5 1.5 0 0 0 1.158038 6.04798 1.5 1.5 0 0 0 1.258728 6.136441 7 7 0 0 0 1.937673 11.499912 z M 2.803696 10.999912 A 6 6 0 0 1 2.200242 6.485946 1.5 1.5 0 0 0 3.279969 6.0475 1.5 1.5 0 0 0 3.455394 5.835712 L 6.19 6.568 A 1.5 1.5 0 0 0 7.294675 7.899609 1.5 1.5 0 0 0 8.137885 7.879623 l 3.159 4.175 a 1.5 1.5 0 0 0 -0.223093 1.09406 6 6 0 0 1 -0.07417 0.04733 A 6 6 0 0 1 2.803688 10.99991 z M 3.714181 4.869887 A 1.5 1.5 0 0 0 3.437792 4.113821 6 6 0 0 1 4.99985 2.803761 6 6 0 0 1 8.153897 2.00892 1.5 1.5 0 0 0 8.632451 2.954987 L 7.778 4.955 A 1.5 1.5 0 0 0 6.448902 5.602654 z M 8.934645 7.275276 A 1.5 1.5 0 0 0 9.131596 6.839062 1.5 1.5 0 0 0 8.699067 5.347711 l 0.855 -2 a 1.5 1.5 0 0 0 1.306173 -0.616547 6 6 0 0 1 2.336019 2.268759 6 6 0 0 1 -0.279294 6.426404 1.5 1.5 0 0 0 -0.820175 0.02473 z"/>
</svg>

<svg viewBox="0 0 16 16" xmlns="http://www.w3.org/2000/svg">
 <path d="m1.9377 11.5a7 7 0 0 0 9.5622 2.5622 7 7 0 0 0 0.07078-0.04538 1.5 1.5 0 0 0 2.0395-0.07691 1.5 1.5 0 0 0 0.13784-1.9605 7 7 0 0 0 0.3141-7.4794 7 7 0 0 0-2.9206-2.7499 1.5 1.5 0 0 0-1.1063-1.3459 1.5 1.5 0 0 0-1.6294 0.61145 7 7 0 0 0-3.9059 0.92222 7 7 0 0 0-1.8849 1.6024 1.5 1.5 0 0 0-1.4574 0.38587 1.5 1.5 0 0 0-0.19024 1.8892 1.5 1.5 0 0 0 0.19072 0.23268 1.5 1.5 0 0 0 0.10069 0.088461 7 7 0 0 0 0.67894 5.3635zm0.86602-0.5a6 6 0 0 1-0.60345-4.514 1.5 1.5 0 0 0 1.0797-0.43845 1.5 1.5 0 0 0 0.17542-0.21179l2.7346 0.73229a1.5 1.5 0 0 0 1.1047 1.3316 1.5 1.5 0 0 0 0.84321-0.019986l3.159 4.175a1.5 1.5 0 0 0-0.22309 1.0941 6 6 0 0 1-0.07417 0.04733 6 6 0 0 1-8.1959-2.1961zm0.91048-6.13a1.5 1.5 0 0 0-0.27639-0.75607 6 6 0 0 1 1.5621-1.3101 6 6 0 0 1 3.154-0.79484 1.5 1.5 0 0 0 0.47855 0.94607l-0.85445 2a1.5 1.5 0 0 0-1.3291 0.64765zm5.2205 2.4054a1.5 1.5 0 0 0 0.19695-0.43621 1.5 1.5 0 0 0-0.43253-1.4914l0.855-2a1.5 1.5 0 0 0 1.3062-0.61655 6 6 0 0 1 2.336 2.2688 6 6 0 0 1-0.27929 6.4264 1.5 1.5 0 0 0-0.82018 0.02473z" fill="#2e3440"/>
</svg>
